!!!COM: Corelli, Arcangelo
!!!OPR: Sonata da chiesa
!!!OPS: 3
!!!ONM: 5
!!!OMV: 3
!!!OMD: Largo
**kern	**harm	**fb	**kern	**kern
*part3	*above	*part3	*part2	*part1
*staff3	*	*	*staff2	*staff1
*I"Violone & Organo	*	*	*I"Violino II	*I"Violino I
*clefF4	*	*	*clefG2	*clefG2
*k[]	*	*	*k[]	*k[]
*M3/4	*	*	*M3/4	*M3/4
*MM72	*	*	*MM72	*MM72
=1	=1	=1	=1	=1
2d	d.i{	.	4.ff	4.aa
.	.	.	8ee	8gg
4D	.	.	4dd	4ff
=2	=2	=2	=2	=2
2A	V	#	2cc#X	2ee
4r	.	.	4r	4r
=3	=3	=3	=3	=3
2F	III.I	5	4.aa	4.ccc
.	.	.	8gg	8bb-X
4F	.	.	4ff	4aa
=4	=4	=4	=4	=4
2c	V	.	2ee	2gg
4r	.	.	4r	4r
=5	=5	=5	=5	=5
2.A	I6	6	2.r	4.ff
.	.	.	.	8gg
.	.	.	.	4aa
=6	=6	=6	=6	=6
2.B-X	ii6	6	4.gg	[2.dd
.	.	.	8aa	.
.	.	.	4bb-X	.
=7	=7	=7	=7	=7
2.c	V(9)	9	[2.ee	4dd]
.	V	8	.	4cc
.	V7	-7	.	4b-X
=8	=8	=8	=8	=8
2.F	I(7)	7 3	4ee]	[2.a
.	I	8	4ff	.
.	.	.	4aa	.
=9	=9	=9	=9	=9
2.BB-X	ii6(2)	7	2.dd	4a]
.	ii6	6	.	4g
.	.	5	.	4f
=10	=10	=10	=10	=10
2BB-X	V2	4 2	2cc	2e
4AA	I6	6	4cc	[4f
=11	=11	=11	=11	=11
4BB-X	ii65	6 5	(8b-XL	4f]
.	.	.	8aJ)	.
2C	V(4)	5 4	2g	4.f
.	V(4)	3	.	.
.	.	.	.	8e
=12	=12	=12	=12	=12
2FF	I|PAC}	.	2f	4f
.	.	.	.	4aa
4F	i.i6	6	4r	4dd
=13	=13	=13	=13	=13
4G	ii%65	6 5 -	4r	(4dd
4A	V	#	4aa	4cc#X)
4B-X	iv6	6	4dd	4dd
=14	=14	=14	=14	=14
4A	V(4)	5 4	(4dd	[2.ee
4AA	V	#	4cc#X)	.
4AA	.	.	4cc#	.
=15	=15	=15	=15	=15
2.D	i(9)	9	[2.ff	4ee]
.	i	8	.	(8ddL
.	.	.	.	8ccJ
.	.	.	.	8bL
.	.	.	.	8aJ)
=16	=16	=16	=16	=16
2.E	v.V(9)	9 #	4ff]	4g#X
.	V	8	(8eeL	[2bb
.	.	.	8ddJ	.
.	.	.	8ccL	.
.	.	.	8bJ)	.
=17	=17	=17	=17	=17
2A	i(9)	9 -	4cc	4bb]
.	i	8	4dd	4aa
4A	V7/IV	7 #	[4ee	4ggni
=18	=18	=18	=18	=18
2D	IV(9)	9 #	4ee]	4ff#X
.	IV(#4)	8 #4|	4dd	4gg#X
4D	iv7	7 5	4cc	4aa
=19	=19	=19	=19	=19
2E	V	#	2b	4gg#X
.	.	.	.	4ee
[4D	iv7	7 5	[4cc	4aa
=20	=20	=20	=20	=20
4D]	.	.	4cc]	4a
2E	V(4)	5 4	2b	4.a
.	.	#	.	8g#X
=21	=21	=21	=21	=21
2AA	i|PAC}	5	2a	4a
.	III.I6{	6	.	[2ff
4A	.	.	4r	.
=22	=22	=22	=22	=22
4B-X	ii65	6 5	[2.gg	4ff]
4c	V	3	.	4ee
4C	.	.	.	4ee
=23	=23	=23	=23	=23
2F	I(9)	9	4gg]	[2.aa
.	I	8	4ff	.
4f	.	.	4ff	.
=24	=24	=24	=24	=24
4d	IVM65	-6 5	2.bb-X	4aa]
4e	V65	-5	.	[2gg
4c	V7	.	.	.
=25	=25	=25	=25	=25
4f	I(9)	9	2.aa	4gg]
4A	I6	6	.	[2ff
4B-X	IVM7	.	.	.
=26	=26	=26	=26	=26
4c	V(4)	5 4	2.gg	4ff]
4G	viio6	6	.	[2ee
4A	iii7	.	.	.
=27	=27	=27	=27	=27
4B-X	IV(4)	5 4	2.ff	4ee]
4F	i.i6	6	.	2dd
4G	iv7	.	.	.
=28	=28	=28	=28	=28
2A	V|HC}	#	4ee	2cc#X
.	.	.	[2aa	.
4F	i6	6	.	4a
=29	=29	=29	=29	=29
2G	iv(9)	9	4aa]	2b
.	iv	8	[2gg	.
4G	iio6	6	.	4ee
=30	=30	=30	=30	=30
4A	V7	7 #	4gg]	4cc#X
4B-X	VI	5	4ff	[2dd
4G	ii%65	6 5 -	4ee	.
=31	=31	=31	=31	=31
4A	V(64)	6 4	4ff	4dd]
2AA	V(4)	5 4	2ee	4.dd
.	V(4)	#	.	.
.	.	.	.	8cc#X
=32	=32	=32	=32	=32
2D	i|PAC}	5	4dd	4dd
.	VI6{	-r6	4f	4b-X
4C	v6	6	4e	[4a
=33	=33	=33	=33	=33
2BB-X	iv6(2)	7	2d	4a]
.	.	.	.	4d
4GG	iio6	.	4e	4g
=34	=34	=34	=34	=34
2AA	V7	.	2c#X	2g
[4GG	iv7	.	[4d	[4f
=35	=35	=35	=35	=35
4GG]	V	.	4d]	4f]
2AA	V(4)	5 4	4.d	2e
.	.	#	8c#X	.
=36	=36	=36	=36	=36
2.DD	i|PAC}	.	2.d	2.d
==	==	==	==	==
*-	*-	*-	*-	*-
!!!system-decoration: [{s1,s2},s3]
!!!YEM: CC BY-NC-SA 4.0; CCARH; DCML
!!!RDF**kern: i = editorial accidental